svgs/komoot.svg

<svg width="192" height="192" viewBox="0 0 192 192" fill="none" xmlns="http://www.w3.org/2000/svg">
<path d="M96 170C136.869 170 170 136.869 170 96C170 55.1309 136.869 22 96 22C55.1309 22 22 55.1309 22 96C22 136.869 55.1309 170 96 170Z" stroke="black" stroke-width="12" stroke-linecap="round" stroke-linejoin="round"/>
<path d="M148 148L96 96L44 148" stroke="black" stroke-width="12" stroke-linecap="round" stroke-linejoin="round"/>
<path d="M96 96L100.243 91.7574C99.1174 90.6321 97.5913 90 96 90C94.4087 90 92.8826 90.6321 91.7574 91.7574L96 96ZM77.6152 114.385L73.3726 118.627L77.6152 122.87L81.8579 118.627L77.6152 114.385ZM114.385 114.385L110.142 118.627L114.385 122.87L118.627 118.627L114.385 114.385ZM76 96C76 84.9543 84.9543 76 96 76V64C78.3269 64 64 78.3269 64 96H76ZM96 76C107.046 76 116 84.9543 116 96H128C128 78.3269 113.673 64 96 64V76ZM81.8579 110.142C78.232 106.516 76 101.525 76 96H64C64 104.835 67.5883 112.843 73.3726 118.627L81.8579 110.142ZM81.8579 118.627L100.243 100.243L91.7574 91.7574L73.3726 110.142L81.8579 118.627ZM116 96C116 101.525 113.768 106.516 110.142 110.142L118.627 118.627C124.412 112.843 128 104.835 128 96H116ZM91.7574 100.243L110.142 118.627L118.627 110.142L100.243 91.7574L91.7574 100.243Z" fill="black"/>
</svg>

<svg xmlns="http://www.w3.org/2000/svg" width="192" height="192" fill="none" xmlns:v="https://vecta.io/nano"><g stroke="#000" stroke-width="12" stroke-linejoin="round"><path d="M96 170c40.869 0 74-33.131 74-74s-33.131-74-74-74-74 33.131-74 74 33.131 74 74 74z"/><path d="M148 148L96 96L44 148" stroke-linecap="round"/></g><path d="M96 96l4.243-4.243a6 6 0 0 0-8.486 0L96 96zm-18.385 18.385l-4.243 4.242 4.243 4.243 4.243-4.243-4.243-4.242zm36.77 0l-4.243 4.242 4.243 4.243 4.242-4.243-4.242-4.242zM76 96c0-11.046 8.954-20 20-20V64c-17.673 0-32 14.327-32 32h12zm20-20c11.046 0 20 8.954 20 20h12c0-17.673-14.327-32-32-32v12zm-14.142 34.142C78.232 106.516 76 101.525 76 96H64c0 8.835 3.588 16.843 9.373 22.627l8.485-8.485zm0 8.485l18.385-18.384-8.486-8.486-18.385 18.385 8.485 8.485zM116 96c0 5.525-2.232 10.516-5.858 14.142l8.485 8.485C124.412 112.843 128 104.835 128 96h-12zm-24.243 4.243l18.385 18.384 8.485-8.485-18.384-18.385-8.486 8.486z" fill="#000"/></svg>
